T: Sir George MacKenzie
M: 4/4
L: 1/8
K: Amaj
F|E2CE A,ECE|A,ECE FBBF|E2CE A,ECE ceBdcAA:|d|c/B/A eA fAeA|c/B/A eA GBBd|c/B/A eA fAeF|EFAB cAAd|c/B/A eA fAeA|c/B/A eA GBBd|ceAc defF|EFAB cAA|]
